src/assets/metronic/worbby/global/img/icon-close-white.svg

<?xml version="1.0" encoding="UTF-8"?>
<svg width="10px" height="10px" viewBox="0 0 10 10" version="1.1" xmlns="http://www.w3.org/2000/svg" xmlns:xlink="http://www.w3.org/1999/xlink">
    <!-- Generator: Sketch 41.2 (35397) - http://www.bohemiancoding.com/sketch -->
    <title>icon-close-white</title>
    <desc>Created with Sketch.</desc>
    <defs></defs>
    <g id="Worbby-Needor" stroke="none" stroke-width="1" fill="none" fill-rule="evenodd">
        <g id="Forms-UI" transform="translate(-236.000000, -700.000000)" fill="#FFFFFF">
            <g id="Group-6" transform="translate(20.000000, 620.000000)">
                <g id="Group">
                    <g id="Form-Field-Full-Width-Mobile-Copy-8" transform="translate(0.000000, 60.000000)">
                        <g id="Group-2">
                            <g id="Group-3-Copy" transform="translate(119.000000, 5.000000)">
                                <g id="icon-filter-close-black" transform="translate(97.000000, 15.000000)">
                                    <path d="M4.04695137,4.999117 L0.230850844,8.81521753 C-0.0248032751,9.07087165 -0.02842025,9.50118303 0.234756861,9.76436014 C0.499768795,10.0293721 0.922879594,10.029286 1.18389947,9.76826616 L5,5.95216563 L8.92095216,9.87311779 C9.12329939,10.075465 9.50206603,10.0275373 9.76524314,9.76436014 C10.0302551,9.49934821 10.0771127,9.12318108 9.87400078,8.92006916 L5.95304863,4.999117 L9.76914916,1.18301648 C10.0248033,0.927362357 10.0284203,0.497050977 9.76524314,0.233873866 C9.5002312,-0.031138068 9.07712041,-0.0310520291 8.81610053,0.229967848 L5,4.04606838 L1.07904784,0.125116221 C0.876700611,-0.0772310122 0.497933973,-0.0293032455 0.234756861,0.233873866 C-0.0302550725,0.4988858 -0.0771127061,0.875052926 0.125999217,1.07816485 L4.04695137,4.999117 Z" id="icon-close-white"></path>
                                </g>
                            </g>
                        </g>
                    </g>
                </g>
            </g>
        </g>
    </g>
</svg>

<svg xmlns="http://www.w3.org/2000/svg" width="10" height="10"><path fill="#FFF" fill-rule="evenodd" d="M4.047 4.999L.231 8.8153c-.2558.2557-.2594.686.0038.9492.265.265.688.265.949.004L5 5.952l3.921 3.921c.2023.2023.581.1543.8442-.1088.265-.265.312-.6412.1088-.8443L5.953 4.999l3.816-3.816c.2558-.2556.2594-.686-.0038-.949-.265-.265-.688-.265-.949-.004L5 4.046 1.079.125C.8767-.077.498-.0292.2348.234c-.265.265-.312.641-.1088.8442l3.921 3.921z"/></svg>
